icons/file-hwp-line.svg

<svg viewBox="0 0 24 24" fill="currentColor" xmlns="http://www.w3.org/2000/svg">
    <path d="M16 2L20.9997 7L21 20.9925C21 21.5489 20.5551 22 20.0066 22H3.9934C3.44476 22 3 21.5447 3 21.0082V2.9918C3 2.44405 3.44749 2 3.9985 2H16ZM16 8.66667H8V7.33333L11.333 7.333L11.3333 6H12.6667L12.666 7.333H14.999L15 4H5V20H19V8L16 7.999V8.66667ZM9.33333 14.6667L9.333 16.666L16 16.6667V18H8V14.6667H9.33333ZM12 14.3333C12.5523 14.3333 13 14.781 13 15.3333C13 15.8856 12.5523 16.3333 12 16.3333C11.4477 16.3333 11 15.8856 11 15.3333C11 14.781 11.4477 14.3333 12 14.3333ZM12 9C13.3807 9 14.5 10.1193 14.5 11.5C14.5 12.8807 13.3807 14 12 14C10.6193 14 9.5 12.8807 9.5 11.5C9.5 10.1193 10.6193 9 12 9ZM12 10.3333C11.3557 10.3333 10.8333 10.8557 10.8333 11.5C10.8333 12.1443 11.3557 12.6667 12 12.6667C12.6443 12.6667 13.1667 12.1443 13.1667 11.5C13.1667 10.8557 12.6443 10.3333 12 10.3333Z"/>
</svg>

<svg xmlns="http://www.w3.org/2000/svg" viewBox="0 0 24 24">
    <g>
        <path fill="none" d="M0 0h24v24H0z"/>
        <path d="M16 2l5 5v13.993A1 1 0 0 1 20.007 22H3.993A1 1 0 0 1 3 21.008V2.992C3 2.444 3.447 2 3.999 2H16zm0 6.667H8V7.333h3.333V6h1.334l-.001 1.333h2.333L15 4H5v16h14V8l-3-.001v.668zm-6.667 6v1.999H16V18H8v-3.333h1.333zM12 14.333a1 1 0 1 1 0 2 1 1 0 0 1 0-2zM12 9a2.5 2.5 0 1 1 0 5 2.5 2.5 0 0 1 0-5zm0 1.333a1.167 1.167 0 1 0 0 2.334 1.167 1.167 0 0 0 0-2.334z"/>
    </g>
</svg>
